icons/media/disc-shield-24.svg

<svg width="24" height="24" viewBox="0 0 24 24" fill="none" xmlns="http://www.w3.org/2000/svg">
<g clip-path="url(#clip0_410_2678)">
<path fill-rule="evenodd" clip-rule="evenodd" d="M20.5776 14.7225C19.7184 14.4259 18.7799 14.4258 17.9207 14.7225L15.2751 15.6346L15.2616 15.639C15.2009 15.6586 15.0076 15.7211 14.853 15.8523C14.7264 15.9597 14.6285 16.097 14.5682 16.2517C14.4946 16.4407 14.4985 16.6437 14.4997 16.7075L14.5 16.7218V18.9039C14.5 20.4376 15.4679 21.4093 16.3837 22.2337C17.3193 23.0759 18.3446 23.6344 18.7462 23.8383L18.755 23.8428C18.7954 23.8639 18.9159 23.9269 19.0632 23.9549C19.184 23.9779 19.3159 23.9779 19.4367 23.9549C19.584 23.9269 19.7045 23.8639 19.7449 23.8428L19.7537 23.8383C20.1553 23.6344 21.1806 23.0759 22.1162 22.2337C23.032 21.4093 24 20.4376 24 18.9039V16.7218L24.0002 16.7075C24.0014 16.6437 24.0053 16.4407 23.9317 16.2517C23.8714 16.097 23.7735 15.9597 23.6469 15.8523C23.4922 15.721 23.2989 15.6586 23.2382 15.639L23.2246 15.6346L20.5776 14.7225ZM18.41 16.1405C18.9522 15.9532 19.5461 15.9532 20.0883 16.1405L22.5 16.9714V18.9039C22.5 19.7912 21.9264 20.3863 21.1126 21.1189C20.4283 21.7348 19.671 22.1829 19.25 22.4091C18.8289 22.1829 18.0716 21.7348 17.3873 21.1189C16.5735 20.3863 16 19.7912 16 18.9039V16.9713L18.41 16.1405Z" fill="black"/>
<path fill-rule="evenodd" clip-rule="evenodd" d="M12 2.5C6.75329 2.5 2.5 6.75329 2.5 12C2.5 17.2467 6.75329 21.5 12 21.5C12.4142 21.5 12.75 21.8358 12.75 22.25C12.75 22.6642 12.4142 23 12 23C5.92487 23 1 18.0751 1 12C1 5.92487 5.92487 1 12 1C18.0751 1 23 5.92487 23 12C23 12.4142 22.6642 12.75 22.25 12.75C21.8358 12.75 21.5 12.4142 21.5 12C21.5 6.75329 17.2467 2.5 12 2.5Z" fill="black"/>
<path fill-rule="evenodd" clip-rule="evenodd" d="M12 13.5C12.8284 13.5 13.5 12.8284 13.5 12C13.5 11.1716 12.8284 10.5 12 10.5C11.1716 10.5 10.5 11.1716 10.5 12C10.5 12.8284 11.1716 13.5 12 13.5ZM12 15C13.6569 15 15 13.6569 15 12C15 10.3431 13.6569 9 12 9C10.3431 9 9 10.3431 9 12C9 13.6569 10.3431 15 12 15Z" fill="black"/>
</g>
<defs>
<clipPath id="clip0_410_2678">
<rect width="24" height="24" fill="white"/>
</clipPath>
</defs>
</svg>

<svg xmlns="http://www.w3.org/2000/svg" width="24" height="24"><g fill-rule="evenodd"><path d="M20.578 14.723a4.077 4.077 0 00-2.657 0l-2.646.912-.013.004c-.061.02-.254.082-.409.213a1 1 0 00-.285.4c-.073.189-.07.392-.068.456v2.196c0 1.534.968 2.505 1.884 3.33.935.842 1.96 1.4 2.362 1.604l.009.005c.04.02.16.084.308.112.121.023.253.023.374 0 .147-.028.267-.091.308-.112l.009-.005a11.444 11.444 0 002.362-1.604c.916-.825 1.884-1.796 1.884-3.33v-2.197c.001-.063.005-.266-.068-.455a1 1 0 00-.285-.4c-.155-.131-.348-.193-.409-.213l-.013-.004-2.647-.912zM18.41 16.14a2.577 2.577 0 011.678 0l2.412.831v1.933c0 .887-.574 1.482-1.387 2.215a9.863 9.863 0 01-1.863 1.29 9.86 9.86 0 01-1.863-1.29C16.573 20.386 16 19.79 16 18.904V16.97l2.41-.83z"/><path d="M12 2.5a9.5 9.5 0 100 19 .75.75 0 010 1.5C5.925 23 1 18.075 1 12S5.925 1 12 1s11 4.925 11 11a.75.75 0 01-1.5 0A9.5 9.5 0 0012 2.5z"/><path d="M12 13.5a1.5 1.5 0 100-3 1.5 1.5 0 000 3zm0 1.5a3 3 0 100-6 3 3 0 000 6z"/></g></svg>
